icons/1_Primary/CoinTracker.svg

<svg width="1024" height="1024" fill="none" xmlns="http://www.w3.org/2000/svg"><g clip-path="url(#a)"><path d="M512 1024c282.77 0 512-229.23 512-512S794.77 0 512 0 0 229.23 0 512s229.23 512 512 512Z" fill="#728DBE"/><path d="M623.89 232a28.123 28.123 0 0 0-10.3 1.81l-226.27 98.86-.89.38a61.075 61.075 0 0 0-35 42.38 61.002 61.002 0 0 0 31.38 40.65L413.7 430l240.92-105.11v-62.84A30.7 30.7 0 0 0 623.89 232Zm30.79 119.24-209.54 91.49 93.36 40.72h.18v.18l31.09 13.58 68.46-29.94.62-.33a30.586 30.586 0 0 0 15.83-26.78v-88.92Zm-305.36 38.33v149.28L654 671.87v-89.659a30.26 30.26 0 0 0-17.52-26.921l-98.5-43v-.18h-.18L413.12 457.7l-30.91-13.92-.81-.43a60.994 60.994 0 0 1-32.08-53.79v.01Zm0 176.701V638a60.704 60.704 0 0 0 37.41 53.49l224.65 98.14a32.619 32.619 0 0 0 11.93 2.37 30.702 30.702 0 0 0 28.363-18.974A30.708 30.708 0 0 0 654 761.271v-62l-304.68-133Z" fill="#fff"/></g><defs><clipPath id="a"><path fill="#fff" d="M0 0h1024v1024H0z"/></clipPath></defs></svg>

<svg width="1024" height="1024" viewBox="0 0 1024 1024" fill="none" xmlns="http://www.w3.org/2000/svg">
<g clip-path="url(#clip0_2_1872)">
<path d="M512 1024C794.77 1024 1024 794.77 1024 512C1024 229.23 794.77 0 512 0C229.23 0 0 229.23 0 512C0 794.77 229.23 1024 512 1024Z" fill="#728DBE"/>
<path d="M623.89 232C620.374 231.954 616.88 232.568 613.59 233.81L387.32 332.67L386.43 333.05C377.69 336.887 369.971 342.72 363.892 350.08C357.814 357.44 353.546 366.122 351.43 375.43C353.391 384.08 357.215 392.198 362.634 399.218C368.054 406.239 374.939 411.993 382.81 416.08L413.7 430L654.62 324.89V262.05C654.45 254.016 651.137 246.369 645.391 240.751C639.646 235.132 631.926 231.991 623.89 232ZM654.68 351.24L445.14 442.73L538.5 483.45H538.68V483.63L569.77 497.21L638.23 467.27L638.85 466.94C643.643 464.3 647.64 460.423 650.424 455.713C653.208 451.003 654.678 445.632 654.68 440.16V351.24ZM349.32 389.57V538.85L654 671.87V582.211C653.901 576.531 652.205 570.995 649.107 566.234C646.009 561.474 641.633 557.681 636.48 555.29L537.98 512.29V512.11H537.8L413.12 457.7L382.21 443.78L381.4 443.35C371.69 438.122 363.579 430.359 357.93 420.887C352.281 411.415 349.306 400.589 349.32 389.56V389.57ZM349.32 566.271V638C349.813 649.554 353.596 660.726 360.223 670.202C366.851 679.678 376.047 687.064 386.73 691.49L611.38 789.63C615.173 791.161 619.22 791.965 623.31 792C627.344 791.999 631.337 791.203 635.063 789.658C638.788 788.113 642.173 785.848 645.023 782.995C647.873 780.141 650.133 776.753 651.673 773.026C653.213 769.298 654.004 765.304 654 761.271V699.271L349.32 566.271Z" fill="white"/>
</g>
<defs>
<clipPath id="clip0_2_1872">
<rect width="1024" height="1024" fill="white"/>
</clipPath>
</defs>
</svg>
